static/logo.black.svg

<?xml version="1.0" encoding="UTF-8"?>
<svg width="862" height="336" version="1.1" viewBox="0 0 862 336" xmlns="http://www.w3.org/2000/svg"><g clip-rule="evenodd" fill-rule="evenodd"><path d="m40.172 297.47-40.035-136.44 5.2948-5.383c32.663-33.209 48.596-49.315 64.524-65.416 15.918-16.091 31.833-32.178 64.473-65.363l18.322 18.021c-32.663 33.209-48.596 49.315-64.524 65.416-13.155 13.297-26.307 26.593-48.898 49.536l95.579 24.983 77.619-78.917 18.323 18.021-77.62 78.917 26.625 95.375 125.95-125.8 18.162 18.184-146.79 146.61-137.01-37.748zm114.73 4.954-26.442-94.719-95.144-24.869 27.483 93.661 94.103 25.927z"/><path d="m297.54 133.53-90.069 91.575-18.323-18.022 90.144-91.65 21.402-21.401 18.172 18.172-21.326 21.326z"/><path d="m254.22 18.754-126.15 128.26-18.322-18.021 126.15-128.26 18.322 18.021z"/><path d="m332.97 18.102-84.099 85.505-18.322-18.021 84.099-85.505 18.322 18.021z"/></g><g><path d="m440.23 256.61v-119.52h28.494v119.52h-28.494zm0-136.92v-24.362h28.603v24.362h-28.603z"/><path d="m559.75 258.89c-18.271 0-32.518-5.437-42.741-16.313-10.15-10.875-15.226-26.427-15.226-46.656 0-19.576 5.329-34.765 15.987-45.568 10.731-10.803 24.833-16.205 42.306-16.205 13.993 0 25.812 3.009 35.454 9.027l-6.742 20.337c-9.861-5.148-19.033-7.722-27.515-7.722-9.643 0-17.256 3.444-22.839 10.332-5.51 6.888-8.266 16.93-8.266 30.125 0 13.341 2.719 23.492 8.157 30.452 5.51 6.96 13.268 10.44 23.274 10.44 10.44 0 20.482-3.081 30.125-9.244l2.719 21.643c-5.003 3.335-10.187 5.727-15.552 7.177s-11.746 2.175-19.141 2.175z"/><path d="m678.99 258.89c-19.214 0-34.186-5.51-44.916-16.53-10.658-11.093-15.987-26.392-15.987-45.895 0-18.996 5.039-34.113 15.117-45.351s23.817-16.893 41.218-16.966c16.458 0 29.219 5.148 38.282 15.443 9.135 10.296 13.703 23.963 13.703 41.001 0 1.233-0.036 3.226-0.109 5.982v6.09h-79.5c0.29 11.165 3.335 19.83 9.136 25.992 5.872 6.091 13.92 9.136 24.143 9.136 13.051 0 25.594-3.408 37.63-10.223l4.024 20.228c-11.963 7.396-26.21 11.093-42.741 11.093zm-31.648-74.171h52.203c0-9.715-2.212-17.183-6.635-22.403-4.422-5.221-10.549-7.831-18.379-7.831-7.323 0-13.522 2.538-18.597 7.613-5.003 5.075-7.867 12.616-8.592 22.621z"/><path d="m798.62 258.89c-15.588 0-27.841-5.727-36.759-17.183-8.918-11.455-13.377-26.754-13.377-45.895 0-18.561 4.423-33.46 13.268-44.698 8.918-11.311 21.171-16.966 36.76-16.966 16.966 0 28.965 6.018 35.998 18.053-0.725-7.105-1.088-13.957-1.088-20.554v-38.609l28.494-1.8488v165.42h-24.687l-3.154-16.314c-1.233 1.958-2.393 3.662-3.48 5.112-1.016 1.377-2.538 3.009-4.568 4.894-2.03 1.812-4.242 3.299-6.634 4.459-2.32 1.087-5.293 2.03-8.918 2.827-3.553 0.87-7.504 1.305-11.855 1.305zm6.743-21.642c19.141 0 28.857-13.014 29.147-39.043 0-14.718-2.465-25.449-7.396-32.192-4.93-6.742-12.289-10.114-22.077-10.114-8.555 0-15.407 3.444-20.555 10.332-5.075 6.815-7.613 16.893-7.613 30.234 0 13.268 2.538 23.382 7.613 30.343 5.148 6.96 12.108 10.44 20.881 10.44z"/></g></svg>

<svg width="862" height="336" viewBox="0 0 862 336" fill="none" xmlns="http://www.w3.org/2000/svg">
<path fill-rule="evenodd" clip-rule="evenodd" d="M40.1718 297.468L0.137207 161.031L5.43202 155.648C38.0951 122.439 54.0278 106.333 69.9564 90.2319C85.8745 74.1411 101.789 58.0536 134.429 24.8688L152.751 42.89C120.088 76.0989 104.155 92.2046 88.2267 108.306C75.0721 121.603 61.9195 134.899 39.3289 157.842L134.908 182.825L212.527 103.908L230.85 121.929L153.23 200.846L179.855 296.221L305.807 170.42L323.969 188.604L177.18 335.216L40.1718 297.468ZM154.904 302.422L128.462 207.703L33.3182 182.834L60.8008 276.495L154.904 302.422Z" fill="black"/>
<path fill-rule="evenodd" clip-rule="evenodd" d="M297.541 133.529L207.472 225.104L189.149 207.082L279.293 115.432L300.695 94.0308L318.867 112.203L297.541 133.529Z" fill="black"/>
<path fill-rule="evenodd" clip-rule="evenodd" d="M254.225 18.7539L128.076 147.011L109.754 128.99L235.903 0.732659L254.225 18.7539Z" fill="black"/>
<path fill-rule="evenodd" clip-rule="evenodd" d="M332.969 18.1023L248.87 103.607L230.548 85.5857L314.647 0.0810547L332.969 18.1023Z" fill="black"/>
<path d="M440.233 256.611V137.088H468.727V256.611H440.233ZM440.233 119.688V95.3263H468.836V119.688H440.233Z" fill="black"/>
<path d="M559.747 258.894C541.476 258.894 527.229 253.457 517.006 242.581C506.856 231.706 501.78 216.154 501.78 195.925C501.78 176.349 507.109 161.16 517.767 150.357C528.498 139.554 542.6 134.152 560.073 134.152C574.066 134.152 585.885 137.161 595.527 143.179L588.785 163.516C578.924 158.368 569.752 155.794 561.27 155.794C551.627 155.794 544.014 159.238 538.431 166.126C532.921 173.014 530.165 183.056 530.165 196.251C530.165 209.592 532.884 219.743 538.322 226.703C543.832 233.663 551.59 237.143 561.596 237.143C572.036 237.143 582.078 234.062 591.721 227.899L594.44 249.542C589.437 252.877 584.253 255.269 578.888 256.719C573.523 258.169 567.142 258.894 559.747 258.894Z" fill="black"/>
<path d="M678.991 258.894C659.777 258.894 644.805 253.384 634.075 242.364C623.417 231.271 618.088 215.972 618.088 196.469C618.088 177.473 623.127 162.356 633.205 151.118C643.283 139.88 657.022 134.225 674.423 134.152C690.881 134.152 703.642 139.3 712.705 149.595C721.84 159.891 726.408 173.558 726.408 190.596C726.408 191.829 726.372 193.822 726.299 196.578C726.299 199.333 726.299 201.363 726.299 202.668H646.799C647.089 213.833 650.134 222.498 655.935 228.66C661.807 234.751 669.855 237.796 680.078 237.796C693.129 237.796 705.672 234.388 717.708 227.573L721.732 247.801C709.769 255.197 695.522 258.894 678.991 258.894ZM647.343 184.723H699.546C699.546 175.008 697.334 167.54 692.911 162.32C688.489 157.099 682.362 154.489 674.532 154.489C667.209 154.489 661.01 157.027 655.935 162.102C650.932 167.177 648.068 174.718 647.343 184.723Z" fill="black"/>
<path d="M798.617 258.894C783.029 258.894 770.776 253.167 761.858 241.711C752.94 230.256 748.481 214.957 748.481 195.816C748.481 177.255 752.904 162.356 761.749 151.118C770.667 139.807 782.92 134.152 798.509 134.152C815.475 134.152 827.474 140.17 834.507 152.205C833.782 145.1 833.419 138.248 833.419 131.651V93.0424L861.913 91.1936V256.611H837.226L834.072 240.297C832.839 242.255 831.679 243.959 830.592 245.409C829.576 246.786 828.054 248.418 826.024 250.303C823.994 252.115 821.782 253.602 819.39 254.762C817.07 255.849 814.097 256.792 810.472 257.589C806.919 258.459 802.968 258.894 798.617 258.894ZM805.36 237.252C824.501 237.252 834.217 224.238 834.507 198.209C834.507 183.491 832.042 172.76 827.111 166.017C822.181 159.275 814.822 155.903 805.034 155.903C796.479 155.903 789.627 159.347 784.479 166.235C779.404 173.05 776.866 183.128 776.866 196.469C776.866 209.737 779.404 219.851 784.479 226.812C789.627 233.772 796.587 237.252 805.36 237.252Z" fill="black"/>
</svg>
